!!!OTL: Puer Natus
!!!COL: Orgelbüchlein
!!!COL:
**kern	**text	**text	**text	**text	**text
*clefG2	*	*	*	*	*
*k[b-e-]	*	*	*	*	*
*M3/2	*	*	*	*	*
*g:	*	*	*	*	*
=0	=0	=0	=0	=0	=0
2g	1.Ein	2.Hie	3.Das	4.Die	5.Zu
=1	=1	=1	=1	=1	=1
1g	Kind	le-	Öchse-	Kön-	die-
2g	ge-	it	lein	ig	ser
=2	=2	=2	=2	=2	=2
1a	born	in	und	aus	weih-
2a	zu	dem	das	Sa-	nacht-
=3	=3	=3	=3	=3	=3
1b-	Beth-	Krip-	E-	ba	li-
2g	le-	pe-	se	ka-	chen
=4	=4	=4	=4	=4	=4
1.f;	hem,	lein,	lein	men,	Zeit,
=5	=5	=5	=5	=5	=5
1b-	Hal	Hal-	Hal-	Hal-	Hal-
2cc	le-	le-	le-	le-	le-
=6	=6	=6	=6	=6	=6
1b-	lu-	lu-	lu-	lu-	lu-
2a	.	.	.	.	.
=7	=7	=7	=7	=7	=7
1b-;	ia!	ia!	ia!	ia!	ia!
2b-	des	Ohn	Er-	Gold,	Sei
=8	=8	=8	=8	=8	=8
1b-	fre-	En-	kan-	Weih-	Gott
2b-	ut	de	nten	rauch,	ge-
=9	=9	=9	=9	=9	=9
1a	sich	ist	Gott	Myr-	lobt
2g	Je-	der	den	rhen	in
=10	=10	=10	=10	=10	=10
1g	ru-	Herr-	Her-	brach-	E-
2f#	sa-	schaft	ren	ten	wig-
=11	=11	=11	=11	=11	=11
1g;	lem,	sein,	sein,	sie	keit,
2g	Hal-	Hal	Hal-	Hal	Hal-
=12	=12	=12	=12	=12	=12
1f	le-	le-	le-	le-	le-
2g	lu-	lu-	lu-	lu-	lu-
=13	=13	=13	=13	=13	=13
1a	ja,	ja,-	ja,	ja,	ja,
2g	Hal-	Hal	Hal-	Hal	Hal-
=14	=14	=14	=14	=14	=14
1b-	le-	le-	le-	le-	le-
2a	.	.	.	.	.
=15	=15	=15	=15	=15	=15
1g	lu-	lu-	lu-	lu-	lu-
2f#	.	.	.	.	.
=16	=16	=16	=16	=16	=16
1g;	ja.	ja.	ja.	ja.	ja.
==	==	==	==	==	==
*-	*-	*-	*-	*-	*-
